src/components/atoms/Icon/svgs/slack.svg

<svg viewBox="0 0 24 24" fill="none" xmlns="http://www.w3.org/2000/svg">
    <path d="M14.5 10c-.83 0-1.5-.67-1.5-1.5v-5c0-.83.67-1.5 1.5-1.5s1.5.67 1.5 1.5v5c0 .83-.67 1.5-1.5 1.5z" stroke="currentColor" stroke-width="2" stroke-miterlimit="10" stroke-linecap="round" stroke-linejoin="round"/>
    <path d="M20.5 10H19V8.5c0-.83.67-1.5 1.5-1.5s1.5.67 1.5 1.5-.67 1.5-1.5 1.5z" stroke="currentColor" stroke-width="2" stroke-miterlimit="10" stroke-linecap="round" stroke-linejoin="round"/>
    <path d="M9.5 14c.83 0 1.5.67 1.5 1.5v5c0 .83-.67 1.5-1.5 1.5S8 21.33 8 20.5v-5c0-.83.67-1.5 1.5-1.5z" stroke="currentColor" stroke-width="2" stroke-miterlimit="10" stroke-linecap="round" stroke-linejoin="round"/>
    <path d="M3.5 14H5v1.5c0 .83-.67 1.5-1.5 1.5S2 16.33 2 15.5 2.67 14 3.5 14z" stroke="currentColor" stroke-width="2" stroke-miterlimit="10" stroke-linecap="round" stroke-linejoin="round"/>
    <path d="M14 14.5c0-.83.67-1.5 1.5-1.5h5c.83 0 1.5.67 1.5 1.5s-.67 1.5-1.5 1.5h-5c-.83 0-1.5-.67-1.5-1.5z" stroke="currentColor" stroke-width="2" stroke-miterlimit="10" stroke-linecap="round" stroke-linejoin="round"/>
    <path d="M15.5 19H14v1.5c0 .83.67 1.5 1.5 1.5s1.5-.67 1.5-1.5-.67-1.5-1.5-1.5z" stroke="currentColor" stroke-width="2" stroke-miterlimit="10" stroke-linecap="round" stroke-linejoin="round"/>
    <path d="M10 9.5C10 8.67 9.33 8 8.5 8h-5C2.67 8 2 8.67 2 9.5S2.67 11 3.5 11h5c.83 0 1.5-.67 1.5-1.5z" stroke="currentColor" stroke-width="2" stroke-miterlimit="10" stroke-linecap="round" stroke-linejoin="round"/>
    <path d="M8.5 5H10V3.5C10 2.67 9.33 2 8.5 2S7 2.67 7 3.5 7.67 5 8.5 5z" stroke="currentColor" stroke-width="2" stroke-miterlimit="10" stroke-linecap="round" stroke-linejoin="round"/>
</svg>

<svg width="24" height="24" viewBox="0 0 24 24" fill="none" xmlns="http://www.w3.org/2000/svg">
    <path
        d="M14.5 10C13.67 10 13 9.33 13 8.5V3.5C13 2.67 13.67 2 14.5 2C15.33 2 16 2.67 16 3.5V8.5C16 9.33 15.33 10 14.5 10Z"
        stroke="currentColor" stroke-width="2" stroke-miterlimit="10" stroke-linecap="round" stroke-linejoin="round" />
    <path d="M20.5 10H19V8.5C19 7.67 19.67 7 20.5 7C21.33 7 22 7.67 22 8.5C22 9.33 21.33 10 20.5 10Z"
        stroke="currentColor" stroke-width="2" stroke-miterlimit="10" stroke-linecap="round" stroke-linejoin="round" />
    <path
        d="M9.5 14C10.33 14 11 14.67 11 15.5V20.5C11 21.33 10.33 22 9.5 22C8.67 22 8 21.33 8 20.5V15.5C8 14.67 8.67 14 9.5 14Z"
        stroke="currentColor" stroke-width="2" stroke-miterlimit="10" stroke-linecap="round" stroke-linejoin="round" />
    <path d="M3.5 14H5V15.5C5 16.33 4.33 17 3.5 17C2.67 17 2 16.33 2 15.5C2 14.67 2.67 14 3.5 14Z" stroke="currentColor"
        stroke-width="2" stroke-miterlimit="10" stroke-linecap="round" stroke-linejoin="round" />
    <path
        d="M14 14.5C14 13.67 14.67 13 15.5 13H20.5C21.33 13 22 13.67 22 14.5C22 15.33 21.33 16 20.5 16H15.5C14.67 16 14 15.33 14 14.5Z"
        stroke="currentColor" stroke-width="2" stroke-miterlimit="10" stroke-linecap="round" stroke-linejoin="round" />
    <path d="M15.5 19H14V20.5C14 21.33 14.67 22 15.5 22C16.33 22 17 21.33 17 20.5C17 19.67 16.33 19 15.5 19Z"
        stroke="currentColor" stroke-width="2" stroke-miterlimit="10" stroke-linecap="round" stroke-linejoin="round" />
    <path d="M10 9.5C10 8.67 9.33 8 8.5 8H3.5C2.67 8 2 8.67 2 9.5C2 10.33 2.67 11 3.5 11H8.5C9.33 11 10 10.33 10 9.5Z"
        stroke="currentColor" stroke-width="2" stroke-miterlimit="10" stroke-linecap="round" stroke-linejoin="round" />
    <path d="M8.5 5H10V3.5C10 2.67 9.33 2 8.5 2C7.67 2 7 2.67 7 3.5C7 4.33 7.67 5 8.5 5Z" stroke="currentColor"
        stroke-width="2" stroke-miterlimit="10" stroke-linecap="round" stroke-linejoin="round" />
</svg>
